packages/core/src/svgs/fevr.svg

<svg width="24" height="24" viewBox="0 0 24 24" fill="none" xmlns="http://www.w3.org/2000/svg">
<g clip-path="url(#clip0_31_10297)">
<path d="M0 0H24V24H0V0Z" fill="url(#paint0_linear_31_10297)"/>
<path d="M12.4459 6.85693H6.85728C6.74362 6.85693 6.63461 6.90209 6.55424 6.98246C6.47386 7.06283 6.42871 7.17184 6.42871 7.28551V16.7141C6.42871 16.8277 6.47386 16.9367 6.55424 17.0171C6.63461 17.0975 6.74362 17.1426 6.85728 17.1426H9.00014V13.7141H10.6373L11.3144 11.1426H9.00014V9.42836H11.7687L12.4459 6.85693ZM12.5616 11.1426H14.0359C14.2632 11.1426 14.4812 11.0523 14.6419 10.8916C14.8027 10.7309 14.893 10.5128 14.893 10.2855C14.893 10.0582 14.8027 9.84016 14.6419 9.67941C14.4812 9.51867 14.2632 9.42836 14.0359 9.42836H13.0159L13.693 6.85693H13.9416C14.6737 6.85703 15.3866 7.09148 15.9758 7.52597C16.5651 7.96046 16.9998 8.57216 17.2163 9.27154C17.4328 9.97091 17.4198 10.7212 17.1791 11.4127C16.9384 12.1041 16.4827 12.7003 15.8787 13.1141L18.0001 17.1426H15.133L13.3244 13.7141H11.8844L12.5616 11.1426Z" fill="white"/>
</g>
<defs>
<linearGradient id="paint0_linear_31_10297" x1="4.71429" y1="3.21429" x2="19.0714" y2="21.2143" gradientUnits="userSpaceOnUse">
<stop stop-color="#E752F5"/>
<stop offset="0.48" stop-color="#5C0CA9"/>
<stop offset="1" stop-color="#44019C"/>
</linearGradient>
<clipPath id="clip0_31_10297">
<rect width="24" height="24" fill="white"/>
</clipPath>
</defs>
</svg>

<svg xmlns="http://www.w3.org/2000/svg" width="24" height="24" fill="none" viewBox="0 0 24 24"><g clip-path="url(#a)"><path fill="url(#b)" d="M0 0h24v24H0z"/><path fill="#fff" d="M12.446 6.857H6.857a.43.43 0 0 0-.428.429v9.428a.43.43 0 0 0 .428.429H9v-3.429h1.637l.677-2.571H9V9.428h2.769zm.116 4.286h1.474a.857.857 0 1 0 0-1.715h-1.02l.677-2.571h.249a3.428 3.428 0 0 1 1.937 6.257L18 17.143h-2.867l-1.809-3.429h-1.44z"/></g><defs><linearGradient id="b" x1="4.714" x2="19.071" y1="3.214" y2="21.214" gradientUnits="userSpaceOnUse"><stop stop-color="#E752F5"/><stop offset=".48" stop-color="#5C0CA9"/><stop offset="1" stop-color="#44019C"/></linearGradient><clipPath id="a"><path fill="#fff" d="M0 0h24v24H0z"/></clipPath></defs></svg>
